X: 63
T: REELS: Mulqueeney's Set
T: Mulqueeney's / Mulqueen's / Spindle Shanks
C: C: Trad.; S: Various
C: Set Leaders: Sophie, Anton, Tania
Z: Anton Zille ed., Oleg Naumov arr.; Jamie / DaveF / ceili at The Session
N: https://thesession.org/members/26966/sets/74626
R: Reel
M: 4/4
L: 1/8
Q: 1/2=100
K: Dmaj
"D"F2 EG FDDE|"G"FDAG "A"FDDE|"D"F2 EG FDDE|"D"FABc "G"dBAG|
"D"F2 EG FDDE|"G"FDAG "A"FDDE|"D"F2 EG FDDE|"G"FABc d2 cd||
"A"e2 ed efed|cdef "G"g2 fg|"A"e2 ef efed|cABc "D"d2 cd|
"A"e2 ed efed|cdef "G"gefg|"D"a~f3 "G"g~e3|"D"dfec "A"dBAG||
T: Tommy Peoples' (Gmaj) / Milkmaid
K: Gmaj
"G"GG"G/B"BG "C"cA"G/B"BG|"D"ADED FGAF|"G"GGBG "C"cA"G/B"BG|"D"Addc AGFA|
"G"GG"G/B"GB "C"cA"G/B"BG|"D"ADED FGAF|"G"GGBG "C"cA"G/B"BG|"D"Addc AG B/c/d||
|:"G"ggdg "D"egdg|"D/B"ggbg "C"fgaf|"G/B"ggdg "Em"egdB|1 "Am"cBAc "D"BG B/c/d:|2 "Am"cBAc "D"BdAF||
T: Fermoy Lasses
K: Emin
|:"Em"GE E/E/E BE E/E/E|GE E/E/E "D"BcBA|"Em"GE E/E/E EGBG|"D"AFDF AcBA|
"Em"GE E/E/E BE E/E/E|GE E/E/E "D"B2 BA|"G"G2 GF GBdB|"D"AFDF AcBA:||
|:"G"G2 BG dGBG|G/G/G Bd "C"ef g2|"G"G/G/G BG dGBG|"D"AFDF AcBA|
"G"G2 BG dGBG|G/G/G Bd "C"ef g2|"Am7"gage dedB|"D"AFDF AcBA:||

